X: 23544
T: Liffey Banks, The
R: reel
M: 4/4
K: Gmajor
|:G3F GBdB|cBcd g2 dc|B2 GB ABGE|DEGB AE3|
GEDE GBdB|cBcd g2 dc|B2 GB ABGE|1 DEGB A2 GF:|2 DEGB AG G2||
|:g3e d2 (3Bcd|gabg aged|g3e d2 (3Bcd|gabg a2 gf|
g3e d2 (3Bcd|gabg agef|gabg efge|dedc BcdB:|

